X:698
T:Scartaglen Reel, The
T:New Road, The
T:New Post Office Reel, The
R:reel
H:Also in Dmix, #300
D:Dervish: The Boys of Sligo
Z:id:hn-reel-698
M:C|
K:Dmix
DFEF D2dB|cAAG EFGE|DFEF D2dB|cAGE EDDE|
DFEF D2Ad|cAAG EFGB|Ad~d2 fded|cAGE ED~D2:|
|:~f3e fage|fefg afde|~f3e fage|fdec Adde|
~f3e fage|fefg afde|fage dfed|cAAG EFGE:|
